www/assets/icons/tablet_android.svg

<svg xmlns="http://www.w3.org/2000/svg" width="24" height="24" viewBox="0 0 24 24" fill='currentColor'><path d="M18 0H6C4.34 0 3 1.34 3 3v18c0 1.66 1.34 3 3 3h12c1.66 0 3-1.34 3-3V3c0-1.66-1.34-3-3-3m-4 22h-4v-1h4zm5.25-3H4.75V3h14.5z"/></svg>

<svg width="24" height="24" viewBox="0 0 24 24" xmlns="http://www.w3.org/2000/svg" fill='currentColor'><path d="M18 0H6C4.34 0 3 1.34 3 3V21C3 22.66 4.34 24 6 24H18C19.66 24 21 22.66 21 21V3C21 1.34 19.66 0 18 0ZM14 22H10V21H14V22ZM19.25 19H4.75V3H19.25V19Z"/></svg>
